X:97
T:Year of Jubilo
C: Traditional
R: Reel
M:4/4
K:D
L: 1/4
F/E/|:"D"DFFA|Aff/e/d/B/|AFdF|"A7"E2-E F/E/|
|"D"DFFA|Af"G"f/e/d/B/|"A7"Ade>d|1"D"d3 F/2E/2:|2 d3 A |]
|:"G"B>ABc|d>edB|"D"AFdF|"A7"E2-E F/E/|
|"D"DFFA|Af"G"f/e/d/B/|"A7"Ade>d|1 "D"d3 A:|2 d4|

